!!!!SEGMENT: Jos/Jos2007-Missus_est_Gabriel_angelus.krn
!!!COM: Josquin des Prez
!!!CDT: ~1450-1521/08/27
!!!COA: Mouton?
!!!OTL@@LAT: Missus est Gabriel angelus
!!!AGN: Motet
!!!SCT: NJE 20.7
!!!SCA: New Josquin Edition 20.7
!!!jrpid: Jos2007
!!!voices: 4
**kern	**text	**kern	**text	**kern	**text	**kern	**text
*MM260	*	*MM260	*	*MM260	*	*MM260	*
*staff4	*	*staff3	*	*staff2	*	*staff1	*
*Ivox	*	*Ivox	*	*Ivox	*	*Ivox	*
*I"Bassus	*	*I"Tenor	*	*I"Altus	*	*I"Superius	*
*I'B	*	*I'T	*	*I'A	*	*I'S	*
*clefF4	*	*clefGv2	*	*clefGv2	*	*clefG2	*
*k[b-]	*	*k[b-]	*	*k[b-]	*	*k[b-]	*
*M2/1	*	*M2/1	*	*M2/1	*	*M2/1	*
*met(C|)	*	*met(C|)	*	*met(C|)	*	*met(C|)	*
=1-	=1-	=1-	=1-	=1-	=1-	=1-	=1-
0r	.	0r	.	0r	.	0G	Mis-
=2	=2	=2	=2	=2	=2	=2	=2
0r	.	0r	.	0r	.	1G	-sus
.	.	.	.	.	.	1d	.
=3	=3	=3	=3	=3	=3	=3	=3
0r	.	0r	.	0G	Mis-	1d	est,
.	.	.	.	.	.	2r	.
.	.	.	.	.	.	[2g/	mis-
=4	=4	=4	=4	=4	=4	=4	=4
0r	.	0r	.	1G	-sus	2g/]	.
.	.	.	.	.	.	4f/	.
.	.	.	.	.	.	4e/	.
.	.	.	.	1d	.	2f/	.
.	.	.	.	.	.	[2B-/	-sus,
=5	=5	=5	=5	=5	=5	=5	=5
0r	.	0G	Mis-	1d	est,	2B-/]	.
.	.	.	.	.	.	1b-	mis-
.	.	.	.	2r	.	.	.
.	.	.	.	[2g\	mis-	4a/	.
.	.	.	.	.	.	4g/	.
=6	=6	=6	=6	=6	=6	=6	=6
0r	.	1G	-sus	2g\]	.	1b-	.
.	.	.	.	4f\	.	.	.
.	.	.	.	4e\	.	.	.
.	.	1d	.	2f\	.	2a/	.
.	.	.	.	[2B-\	-sus,	[2b-\	.
=7	=7	=7	=7	=7	=7	=7	=7
0GG	Mis-	1d	est,	2B-\]	.	4b-\]	.
.	.	.	.	.	.	4a/	.
.	.	.	.	1B-	mis-	1g	.
.	.	2r	.	.	.	.	.
.	.	[2G/	mis-	4A/	-sus	4f/	-sus
.	.	.	.	4G/	.	4e/	.
=8	=8	=8	=8	=8	=8	=8	=8
1GG	-sus	2G/]	.	1B-	est,	[0d	est,
.	.	4F/	.	.	.	.	.
.	.	4E/	.	.	.	.	.
1D	.	2F/	.	2A/	mis-	.	.
.	.	[2BB-/	.	[2d\	.	.	.
=9	=9	=9	=9	=9	=9	=9	=9
1D	est,	4BB-/]	.	2d\]	.	0d]	.
.	.	4C/	.	.	.	.	.
.	.	4D/	.	4c\	.	.	.
.	.	4E/	.	4B-\	.	.	.
2r	.	2F/	.	2A/	.	.	.
[2G\	mis-	2G/	-sus,	[2B-\	.	.	.
=10	=10	=10	=10	=10	=10	=10	=10
2G\]	.	0D	est,	2B-\]	.	0r	.
4F\	.	.	.	4A/	.	.	.
4E\	.	.	.	4G/	.	.	.
2F\	.	.	.	2A/	.	.	.
[2BB-/	-sus,	.	.	[2B-\	.	.	.
=11	=11	=11	=11	=11	=11	=11	=11
2BB-/]	.	1r	.	4B-\]	.	0r	.
.	.	.	.	4A/	.	.	.
1B-	mis-	.	.	1G	.	.	.
.	.	[1d	mis-	.	.	.	.
4A\	.	.	.	4F/	.	.	.
4G\	.	.	.	4E/	.	.	.
=12	=12	=12	=12	=12	=12	=12	=12
1B-	.	1d]	.	2D/	.	0r	.
.	.	.	.	1d	.	.	.
1A	.	1e	.	.	.	.	.
.	.	.	.	2c#i\	-sus	.	.
=13	=13	=13	=13	=13	=13	=13	=13
2F\	.	2.f\	.	[0d	est	0r	.
2.B-\	.	.	.	.	.	.	.
.	.	4e\	.	.	.	.	.
.	.	4d\	.	.	.	.	.
4A\	.	4c\	.	.	.	.	.
[2G\	.	[2B-\	.	.	.	.	.
=14	=14	=14	=14	=14	=14	=14	=14
2G\]	.	2B-\]	.	0d]	.	0r	.
4F\	.	4A/	.	.	.	.	.
4E\	.	4G/	.	.	.	.	.
2F\	.	4A/	.	.	.	.	.
.	.	4G/	.	.	.	.	.
2G\	-sus	[2B-\	.	.	.	.	.
=15	=15	=15	=15	=15	=15	=15	=15
0D	est	2B-\]	.	1r	.	1.f	Ga-
.	.	4A/	-sus	.	.	.	.
.	.	4G/	.	.	.	.	.
.	.	[1A	est,	1d	Ga-	.	.
.	.	.	.	.	.	4e/	.
.	.	.	.	.	.	4d/	.
=16	=16	=16	=16	=16	=16	=16	=16
0r	.	1A]	.	1c	-bri-	1e	-bri-
.	.	2r	.	1d	-el	2d/	-el
.	.	[2D/	Ga-	.	.	[2f/	an-
=17	=17	=17	=17	=17	=17	=17	=17
0r	.	4D/]	.	[0f	an-	4f/]	.
.	.	4E/	.	.	.	4g/	.
.	.	4F/	-bri-	.	.	4a/	.
.	.	4G/	.	.	.	4b-\	.
.	.	2A/	-el	.	.	2cc\	.
.	.	2B-\	an-	.	.	2dd\	.
=18	=18	=18	=18	=18	=18	=18	=18
0r	.	2A/	.	1f]	.	2cc\	.
.	.	1B-	.	.	.	1dd	.
.	.	.	.	1f	-ge-	.	.
.	.	4A/	-ge-	.	.	4cc\	-ge-
.	.	4G/	.	.	.	4b-\	.
=19	=19	=19	=19	=19	=19	=19	=19
1r	.	0F	-lus,	1.f	-lus,	1.a	-lus,
1D	Ga-	.	.	.	.	.	.
.	.	.	.	4e\	.	2f/	Ga-
.	.	.	.	4d\	.	.	.
=20	=20	=20	=20	=20	=20	=20	=20
1C	-bri-	1r	.	2e\	.	2g/	.
.	.	.	.	2.A/	an-	2a/	.
1D	-el	1d	Ga-	.	.	2f/	.
.	.	.	.	4F/	.	.	.
.	.	.	.	2B-\	.	2d/	-bri-
=21	=21	=21	=21	=21	=21	=21	=21
[0F	an-	1c	-bri-	1A	-ge-	0a	-el
.	.	1d	-el	1D	-lus,	.	.
=22	=22	=22	=22	=22	=22	=22	=22
1F]	.	1.f	an-	0r	.	2.a/	an-
.	.	.	.	.	.	4g/	.
1F	-ge-	.	.	.	.	4a/	.
.	.	.	.	.	.	4b-\	.
.	.	2e\	.	.	.	[2cc\	.
=23	=23	=23	=23	=23	=23	=23	=23
0F	-lus	1d	.	1r	.	4cc\]	.
.	.	.	.	.	.	4b-\	.
.	.	.	.	.	.	1b-	.
.	.	1c	-ge-	1F	an-	.	.
.	.	.	.	.	.	2a/	.
=24	=24	=24	=24	=24	=24	=24	=24
1r	.	0B-	-lus	2.G/	.	2.g/	.
.	.	.	.	4A/	.	4f/	.
1BB-	ad	.	.	4B-\	.	2d/	.
.	.	.	.	4c\	.	.	.
.	.	.	.	2d\	.	2f/	.
=25	=25	=25	=25	=25	=25	=25	=25
1C	Ma-	1r	.	2c\	.	1e	-ge-
.	.	.	.	1A	.	.	.
1D	-ri	1F	ad	.	.	1d	-lus
.	.	.	.	[2B-\	.	.	.
=26	=26	=26	=26	=26	=26	=26	=26
1E-i	-am	1G	Ma-	4B-\]	.	0r	.
.	.	.	.	4A/	.	.	.
.	.	.	.	4G/	.	.	.
.	.	.	.	4F/	.	.	.
2C/	vir-	1A	-ri-	2E/	.	.	.
[2D\	.	.	.	2D/	-ge-	.	.
=27	=27	=27	=27	=27	=27	=27	=27
4D\]	.	1B-	-am	1d	-lus	0r	.
4GG/	-gi-	.	.	.	.	.	.
1GG	-nem,	.	.	.	.	.	.
.	.	1G	vir-	2r	.	.	.
[2G\	vir-	.	.	2B-\	ad	.	.
=28	=28	=28	=28	=28	=28	=28	=28
2G\]	.	1A	-gi-	1c	Ma-	1r	.
4F\	.	.	.	.	.	.	.
4E\	.	.	.	.	.	.	.
2F\	.	1D	-nem	1d	-ri-	1f	ad
2D\	-gi-	.	.	.	.	.	.
=29	=29	=29	=29	=29	=29	=29	=29
1C	-nem	0r	.	1e-i	-am	1g	Ma-
1r	.	.	.	2c\	vir-	1a	-ri-
.	.	.	.	[2d\	.	.	.
=30	=30	=30	=30	=30	=30	=30	=30
0r	.	0r	.	4d\]	.	1b-	-am
.	.	.	.	4G/	-gi-	.	.
.	.	.	.	1G	-nem,	.	.
.	.	.	.	.	.	1g	vir-
.	.	.	.	[2g\	vir-	.	.
=31	=31	=31	=31	=31	=31	=31	=31
1.D	nun-	1r	.	2g\]	.	1a	-gi-
.	.	.	.	4f\	-gi-	.	.
.	.	.	.	4e\	.	.	.
.	.	[1A	nun-	1f	-nem	1d	-nem
2D\	-ti-	.	.	.	.	.	.
=32	=32	=32	=32	=32	=32	=32	=32
1D	-ans	2A/]	.	0r	.	0r	.
.	.	2A/	-ti-	.	.	.	.
1D	e-	1A	-ans	.	.	.	.
=33	=33	=33	=33	=33	=33	=33	=33
2.C/	.	1A	e-	0r	.	0r	.
4D\	.	.	.	.	.	.	.
4E\	.	2.G/	.	.	.	.	.
4F\	.	.	.	.	.	.	.
[2G\	.	.	.	.	.	.	.
.	.	4A/	.	.	.	.	.
=34	=34	=34	=34	=34	=34	=34	=34
4G\]	.	4B-\	-i	0r	.	0r	.
4F\	.	4c\	.	.	.	.	.
2D\	-i 	1d	ver-	.	.	.	.
1E	ver-	.	.	.	.	.	.
.	.	2c#i\	.	.	.	.	.
=35	=35	=35	=35	=35	=35	=35	=35
0D	-bum.	0d	-bum.	1r	.	0r	.
.	.	.	.	[1d	nun-	.	.
=36	=36	=36	=36	=36	=36	=36	=36
0r	.	0r	.	2d\]	.	1.a	nun-
.	.	.	.	2d\	-ti-	.	.
.	.	.	.	1d	-ans	.	.
.	.	.	.	.	.	2a/	-ti-
=37	=37	=37	=37	=37	=37	=37	=37
0r	.	0r	.	1d	e-	1a	-ans
.	.	.	.	[1c	.	1a	e-
=38	=38	=38	=38	=38	=38	=38	=38
0r	.	0r	.	2c\]	.	1.g	.
.	.	.	.	4B-\	.	.	.
.	.	.	.	4A/	.	.	.
.	.	.	.	2.G/	.	.	.
.	.	.	.	.	.	4f/	.
.	.	.	.	4A/	.	4e/	.
=39	=39	=39	=39	=39	=39	=39	=39
0r	.	0r	.	4B-\	-i	2d/	.
.	.	.	.	4c\	.	.	.
.	.	.	.	1d	ver-	2f/	-i
.	.	.	.	.	.	1e	ver-
.	.	.	.	2c#i\	.	.	.
=40	=40	=40	=40	=40	=40	=40	=40
0BB-	A-	0r	.	2d\	-bum,	2.d/	-bum,
.	.	.	.	2.f\	ver-	.	.
.	.	.	.	.	.	4e/	.
.	.	.	.	.	.	2f/	.
.	.	.	.	4e\	.	.	.
.	.	.	.	2d\	.	[2B-/	ver-
=41	=41	=41	=41	=41	=41	=41	=41
1FF	-ve	0r	.	1c	.	2B-/]	.
.	.	.	.	.	.	2A/	.
1GG	Ma-	.	.	2.B-\	.	2B-/	.
.	.	.	.	.	.	2G/	.
.	.	.	.	4A/	.	.	.
=42	=42	=42	=42	=42	=42	=42	=42
2.GG/	-ri-	0B-	A-	2.G/	.	1.d	.
4AA/	.	.	.	4F/	.	.	.
4BB-/	.	.	.	1D	-bum.	.	.
4C/	.	.	.	.	.	.	.
[2D\	.	.	.	.	.	4c/	.
.	.	.	.	.	.	4B-/	.
=43	=43	=43	=43	=43	=43	=43	=43
4D\]	.	1F	-ve	0r	.	1A	-bum.
4E\	.	.	.	.	.	.	.
4F\	.	.	.	.	.	.	.
4D\	.	.	.	.	.	.	.
2E\	.	1G	Ma-	.	.	1G	.
2C/	.	.	.	.	.	.	.
=44	=44	=44	=44	=44	=44	=44	=44
2GG/	.	2.G/	-ri-	0r	.	0B-	A-
1G	.	.	.	.	.	.	.
.	.	4A/	.	.	.	.	.
.	.	4B-\	.	.	.	.	.
.	.	4c\	.	.	.	.	.
4F\	.	[2d\	.	.	.	.	.
4E\	.	.	.	.	.	.	.
=45	=45	=45	=45	=45	=45	=45	=45
1D	-a,	4d\]	.	0r	.	1F	-ve
.	.	4e\	.	.	.	.	.
.	.	4f\	.	.	.	.	.
.	.	4d\	.	.	.	.	.
1C	Ma-	1e	.	.	.	1G	Ma-
=46	=46	=46	=46	=46	=46	=46	=46
2GG/	-ri-	1d	-a,	0B-	A-	2.G/	-ri-
1G	.	.	.	.	.	.	.
.	.	.	.	.	.	4A/	.
.	.	1G	Ma-	.	.	4B-/	.
.	.	.	.	.	.	4c/	.
4F\	.	.	.	.	.	[2d/	.
4E\	.	.	.	.	.	.	.
=47	=47	=47	=47	=47	=47	=47	=47
1D	.	1A	-ri-	1F	-ve	4d/]	.
.	.	.	.	.	.	4e/	.
.	.	.	.	.	.	4f/	.
.	.	.	.	.	.	4d/	.
1C	-a,	1c	.	1G	Ma-	1e	.
=48	=48	=48	=48	=48	=48	=48	=48
0r	.	0B-	-a,	2.G/	-ri-	2.d/	.
.	.	.	.	4A/	.	4c/	.
.	.	.	.	4B-\	.	4d/	.
.	.	.	.	4c\	.	4e/	.
.	.	.	.	[2d\	.	4f/	.
.	.	.	.	.	.	4g/	.
=49	=49	=49	=49	=49	=49	=49	=49
0r	.	0r	.	4d\]	.	2a/	.
.	.	.	.	4e\	.	.	.
.	.	.	.	4f\	.	1dd	.
.	.	.	.	4d\	.	.	.
.	.	.	.	1e	.	.	.
.	.	.	.	.	.	2cc\	.
=50	=50	=50	=50	=50	=50	=50	=50
1G	gra-	1r	.	0d	-a,	2b-\	.
.	.	.	.	.	.	4a/	.
.	.	.	.	.	.	4g/	.
2D\	-ti-	1d	gra-	.	.	1f	-a,
[2F\	-a	.	.	.	.	.	.
=51	=51	=51	=51	=51	=51	=51	=51
2F\]	.	2c\	-ti-	0r	.	1r	.
2G\	.	2B-\	-a	.	.	.	.
1E	ple-	1c	ple-	.	.	1g	gra-
=52	=52	=52	=52	=52	=52	=52	=52
0D	-na,	0d	-na,	1r	.	2f/	-ti-
.	.	.	.	.	.	2.b-\	-a
.	.	.	.	1d	gra-	.	.
.	.	.	.	.	.	4a/	.
.	.	.	.	.	.	[2a/	ple-
=53	=53	=53	=53	=53	=53	=53	=53
0r	.	1r	.	2c\	-ti-	2a/]	.
.	.	.	.	2B-\	-a	4g/	.
.	.	.	.	.	.	4f/	.
.	.	1A	do-	1c	ple-	1e	.
=54	=54	=54	=54	=54	=54	=54	=54
1r	.	2B-\	-mi-	0d	-na,	0d	-na,
.	.	2G/	-nus	.	.	.	.
1D	do-	2B-\	te-	.	.	.	.
.	.	[2A/	.	.	.	.	.
=55	=55	=55	=55	=55	=55	=55	=55
2C/	-mi-	2A/]	.	0r	.	0r	.
2BB-/	-nus	4G/	.	.	.	.	.
.	.	4F/	.	.	.	.	.
1C	te-	[1E	.	.	.	.	.
=56	=56	=56	=56	=56	=56	=56	=56
0GG	-cum,	2E/]	.	1r	.	1r	.
.	.	2D/	.	.	.	.	.
.	.	1G	-cum,	1d	do-	1dd	do-
=57	=57	=57	=57	=57	=57	=57	=57
0r	.	2r	.	2e-i\	-mi-	2cc\	-mi-
.	.	2G/	be-	2d\	-nus	2b-\	-nus
.	.	4A/	-ne-	[1c	te-	1cc	te-
.	.	4B-\	.	.	.	.	.
.	.	4c\	.	.	.	.	.
.	.	4d\	.	.	.	.	.
=58	=58	=58	=58	=58	=58	=58	=58
1C	be-	2e\	.	2c\]	.	0g	-cum,
.	.	1f	.	4B-\	.	.	.
.	.	.	.	4A/	.	.	.
1C	-ne-	.	.	1G	.	.	.
.	.	2e\	.	.	.	.	.
=59	=59	=59	=59	=59	=59	=59	=59
2.D\	-dic-	2.f\	-dic-	1F	-cum,	0r	.
4C/	.	4e\	.	.	.	.	.
4D\	.	4d\	.	1r	.	.	.
4E\	.	4c\	.	.	.	.	.
[2F\	.	2d\	.	.	.	.	.
=60	=60	=60	=60	=60	=60	=60	=60
2F\]	.	4c\	.	1c	be-	0r	.
.	.	4F/	.	.	.	.	.
4E\	.	1B-	.	.	.	.	.
4D\	.	.	.	.	.	.	.
1C	-ta	.	.	1c	-ne-	.	.
.	.	2A/	-ta	.	.	.	.
=61	=61	=61	=61	=61	=61	=61	=61
0BB-	tu	0B-	tu	2.d\	-dic-	2r	.
.	.	.	.	.	.	2d/	be-
.	.	.	.	4c\	.	.	.
.	.	.	.	4d\	.	2.f/	-ne-
.	.	.	.	4e\	.	.	.
.	.	.	.	[2f\	.	.	.
.	.	.	.	.	.	4g/	.
=62	=62	=62	=62	=62	=62	=62	=62
1r	.	0F	.	2f\]	.	2a/	-dic-
.	.	.	.	4e\	.	2.b-\	-ta
.	.	.	.	4d\	.	.	.
1F	in	.	.	1c	-ta	.	.
.	.	.	.	.	.	4a/	.
.	.	.	.	.	.	4a/	.
.	.	.	.	.	.	4g/	.
=63	=63	=63	=63	=63	=63	=63	=63
1G	mu-	1r	.	1.B-	tu	0b-	tu
1G	-li-	1B-	in	.	.	.	.
.	.	.	.	4A/	in	.	.
.	.	.	.	4G/	.	.	.
=64	=64	=64	=64	=64	=64	=64	=64
1.A	-e-	1.c	mu-	4F/	mu-	0r	.
.	.	.	.	4G/	.	.	.
.	.	.	.	4A/	.	.	.
.	.	.	.	4B-\	.	.	.
.	.	.	.	4c\	-li-	.	.
.	.	.	.	4d\	.	.	.
2G\	.	2B-\	-li-	[2e\	-e-	.	.
=65	=65	=65	=65	=65	=65	=65	=65
1F	.	1A	-e-	4e\]	.	0r	.
.	.	.	.	4d\	.	.	.
.	.	.	.	1d	.	.	.
1E	-ri-	1G	-ri-	.	.	.	.
.	.	.	.	2c#i\	-ri-	.	.
=66	=66	=66	=66	=66	=66	=66	=66
2.D\	-bus,	1F	-bus,	1d	-bus,	1r	.
4C/	mu-	.	.	.	.	.	.
1BB-	-li-	1G	in	1D	in	1b-	in
=67	=67	=67	=67	=67	=67	=67	=67
1.AA	-e-	2.A/	mu-	2E/	mu-	1.cc	mu-
.	.	.	.	2F/	-li-	.	.
.	.	4B-\	.	.	.	.	.
.	.	2c\	-li-	2C/	-e-	.	.
2GG/	-ri-	[2d\	-e-	[2G/	.	2b-\	-li-
=68	=68	=68	=68	=68	=68	=68	=68
1D	-bus,	4d\]	.	2G/]	.	1a	-e-
.	.	4c\	.	.	.	.	.
.	.	2A/	.	2F#i/	-ri-	.	.
2r	.	2B-\	.	2G/	-bus,	1g	-ri-
2C/	in	2c\	-ri-	[2e-i\	mu-	.	.
=69	=69	=69	=69	=69	=69	=69	=69
2D\	mu-	1A	-bus,	4e-yi\]	.	1f	-bus,
.	.	.	.	4d\	-li-	.	.
2F\	-li-	.	.	1d	-e-	.	.
1E	-e-	1G	.	.	.	1g	.
.	.	.	.	2c\	-ri-	.	.
=70	=70	=70	=70	=70	=70	=70	=70
1D	-ri-	2r	.	1f	-bus,	1a	.
.	.	2d\	al-	.	.	.	.
1A	-bus,	2c\	.	2e\	.	2r	.
.	.	2A/	-le-	2c\	al-	2cc\	al-
=71	=71	=71	=71	=71	=71	=71	=71
2r	.	1B-	-lu-	2d\	-le-	2b-\	-le-
2G\	al-	.	.	2.e\	-lu-	2g/	.
2F\	-le-	1A	-ja,	.	.	1a	-lu-
.	.	.	.	4d\	.	.	.
2D\	.	.	.	[2d\	.	.	.
=72	=72	=72	=72	=72	=72	=72	=72
1E	-lu-	2r	.	2d\]	.	2.g/	.
.	.	2G/	al-	2c#i\	.	.	.
.	.	.	.	.	.	4e/	.
1D	-ja,	2A/	.	2d\	-ja,	4f/	.
.	.	.	.	.	.	4g/	.
.	.	2F/	-le-	2f\	al-	[2a/	.
=73	=73	=73	=73	=73	=73	=73	=73
1r	.	2G/	-lu-	2e\	-le-	4a/]	.
.	.	.	.	.	.	4g/	.
.	.	2B-\	.	2.d\	-lu-	1g	.
1D	al-	1A	.	.	.	.	.
.	.	.	.	4c\	.	.	.
.	.	.	.	2d\	.	2f#i/	.
=74	=74	=74	=74	=74	=74	=74	=74
1.E-	-le-	0G	-ja,	2B-\	-ja,	0g	-ja,
.	.	.	.	2G/	al-	.	.
.	.	.	.	2.c\	-le-	.	.
2D\	.	.	.	.	.	.	.
.	.	.	.	4B-\	.	.	.
=75	=75	=75	=75	=75	=75	=75	=75
2C/	.	1r	.	4A/	-lu-	0r	.
.	.	.	.	4G/	.	.	.
2BB-/	.	.	.	1G	.	.	.
1AA	-lu-	1A	al-	.	.	.	.
.	.	.	.	2F#i/	.	.	.
=76	=76	=76	=76	=76	=76	=76	=76
0GG	-ja,	1.B-	-le-	1G	-ja,	2r	.
.	.	.	.	.	.	2d/	al-
.	.	.	.	2.d\	al-	2.g/	-le-
.	.	2A/	.	.	.	.	.
.	.	.	.	4c\	.	4f/	.
=77	=77	=77	=77	=77	=77	=77	=77
1r	.	2G/	.	2B-\	.	4e/	-lu-
.	.	.	.	.	.	4d/	.
.	.	2F/	.	2A/	-le-	1d	.
1G	al-	1E	-lu-	2G/	-lu-	.	.
.	.	.	.	4F/	.	2c#i/	.
.	.	.	.	4E/	.	.	.
=78	=78	=78	=78	=78	=78	=78	=78
2A\	-le-	1D	-ja,	1F	-ja,	1d	-ja,
1F	-lu-	.	.	.	.	.	.
.	.	1d	al-	1f	al-	1a	.
4E\	.	.	.	.	.	.	.
4D\	.	.	.	.	.	.	.
=79	=79	=79	=79	=79	=79	=79	=79
0C	-ja,	1.e-i	-le-	1.g	-le-	2r	.
.	.	.	.	.	.	2g/	al-
.	.	.	.	.	.	2.cc\	-le-
.	.	2d\	.	2f\	.	.	.
.	.	.	.	.	.	4b-\	.
=80	=80	=80	=80	=80	=80	=80	=80
1r	.	2c\	.	2e-i\	-lu-	4a/	-lu-
.	.	.	.	.	.	4g/	.
.	.	2B-\	.	2.d\	.	1g	.
1D	al-	1A	-lu-	.	.	.	.
.	.	.	.	4c\	.	.	.
.	.	.	.	2d\	.	2f#i/	.
=81	=81	=81	=81	=81	=81	=81	=81
1.E-i	-le-	0G	-ja,	2B-\	-ja,	0g	-ja,
.	.	.	.	2G/	al-	.	.
.	.	.	.	2.c\	-le-	.	.
2D\	.	.	.	.	.	.	.
.	.	.	.	4B-\	.	.	.
=82	=82	=82	=82	=82	=82	=82	=82
2C/	.	1r	.	4A/	-lu-	1r	.
.	.	.	.	4G/	.	.	.
2BB-/	.	.	.	1G	.	.	.
1AA	-lu-	1c	al-	.	.	1a	al-
.	.	.	.	2F#i/	.	.	.
=83	=83	=83	=83	=83	=83	=83	=83
2GG/	-ja,	1B-	-le-	[0Gl	-ja.	1.b-	-le-
1G	al-	.	.	.	.	.	.
.	.	[1G	-lu-	.	.	.	.
2F\	-le-	.	.	.	.	2a/	.
=84	=84	=84	=84	=84	=84	=84	=84
2E-i\	-lu-	2G/]	.	0G_	.	2g/	-lu-
2D\	.	4A/	.	.	.	2f/	.
.	.	4B-\	.	.	.	.	.
2.C/	.	1c	.	.	.	1e-i	.
4BB-/	.	.	.	.	.	.	.
=85	=85	=85	=85	=85	=85	=85	=85
0GGl	-ja.	0B-l	-ja.	0G]	.	0dl	-ja.
==	==	==	==	==	==	==	==
*-	*-	*-	*-	*-	*-	*-	*-
!!!RDF**kern: l=long note in original notation
!!!RDF**kern: i=editorial accidental
!!!ENC: Jesse Rodin; Victoria Chang 2011/05/18
!!!END: 2011/05/18/
!!!EED: Jesse Rodin
!!!EEV: 2011/08/18/
!!attribution-level@Jos: 1 (secure, core group [checkmark])
!!!ONB: Translated from MusicXML and edited on 2011/08/18/ by Craig Sapp
!!muse2ps: C^@{COM}^i2I150v90,90,90,120c122z18l2700t130
